!!!COM: Scarlatti, Domenico
!!!CDT: 1685///-1757///
!!!OTL: Sonata in A Major, K.220, L.342
!!!SCT: K. 220
!!!SCT: L. 342
**kern	**dynam	**kern	**dynam
*staff2	*staff2	*staff1	*staff1
*Icemba	*Icemba	*Icemba	*Icemba
*>[A,A,B,B]	*>[A,A,B,B]	*>[A,A,B,B]	*>[A,A,B,B]
*>norep[A,B]	*>norep[A,B]	*>norep[A,B]
*>A	*>A	*>A	*>A
*clefF4	*clefF4	*clefG2	*clefG2
*k[f#c#g#]	*k[f#c#g#]	*k[f#c#g#]	*k[f#c#g#]
*A:	*A:	*A:	*A:
*M3/8	*M3/8	*M3/8	*M3/8
*MM132	*MM132	*MM132	*MM132
=1-	=1-	=1-	=1-
8AA/	f	8r	.
8r	.	8aa'\L	f
8r	p	8cc#'\ 8ee'\J	p
=2	=2	=2	=2
4.r	.	8cc#\ (8ee\L	.
.	.	8dd\ 8ff#\)	.
.	.	8b'\ 8dd'\J	.
=3	=3	=3	=3
4.r	.	8b\ (8dd\L	.
.	.	8cc#\ 8ee\)	.
.	.	8a'\ 8cc#'\J	.
=4	=4	=4	=4
4.r	.	8a\ (8cc#\L	.
.	.	8b\ 8dd\)	.
.	.	8e'\ 8b'\J	.
=5	=5	=5	=5
8r	.	4cc#\	.
8a'\L	.	.	.
8c#'\ 8e'\J	.	8r	.
=6	=6	=6	=6
8c#\ (8e\L	<	8r	<
8d\ 8f#\)	.	8r	.
8B'\ 8d'\J	.	[8ff#\	.
=7	=7	=7	=7
8B\ (8d\L	.	8ff#\]	.
8c#\ 8e\)	.	[4ee\	.
8A'\ 8c#'\J	.	.	.
=8	=8	=8	=8
8A\ (8c#\L	.	8ee\L]	.
.	.	ddq/	.
8B\ 8d\)	.	(8.dd\	.
8E'\ 8B'\J	.	.	.
.	.	32cc#\LL	.
.	.	32dd\JJJ	.
=9	=9	=9	=9
*	*	*^	*
4AA\ 4A\	f	8cc#/L	4cc#\	f
.	.	8aa/)	.	.
[8D\ [8d\	.	8ff#'/J	8dd\	.
=10	=10	=10	=10	=10
8D\] 8d\]	.	8dd/L	8b\	.
4E\ 4e\	.	(8b/	4g#\	.
.	.	8ee/J)	.	.
=11	=11	=11	=11	=11
4AA\ 4A\	.	8cc#/L	(4cc#\	.
.	.	8aa/)	.	.
[8D\ [8d\	.	8ff#'/J	8dd\	.
=12	=12	=12	=12	=12
8D\] 8d\]	.	8dd'/L	8b\	.
4E\ 4e\	.	(8b/	4g#\	.
.	.	8ee/J)	.	.
*	*	*v	*v	*
=13	=13	=13	=13
8r	.	(8cc#/L	>
8r	.	8a/)	.
([8d\	.	8f#'/J	.
=14	=14	=14	=14
*^	*	*	*
8r	8B\) 8d\]	.	8dd'\L	.
4B/	(8G#\L	.	(8.dd\	.
.	8E\J	.	.	.
.	.	.	32cc#\LL	.
.	.	.	32dd\JJJ	.
*v	*v	*	*	*
=15	=15	=15	=15
8A'\)	<	8cc#/L	<
8r	.	8a/)	.
([8d\	.	8f#'/J	.
=16	=16	=16	=16
*^	*	*	*
8r	8B\) 8d\]	.	8dd'\L	.
4B/	(8G#\L	.	(8.dd\	.
.	8E\J	.	.	.
.	.	.	32cc#\LL	.
.	.	.	32dd\JJJ	.
*v	*v	*	*	*
=17	=17	=17	=17
8A\L	.	4cc#\)	.
8B\)	.	.	.
8c#\J	.	8aa'\	.
=18	=18	=18	=18
.	.	gg#q/	.
(8d\L	.	8ff#\L	.
8e\)	.	(16ee\L	.
.	.	16dd\	.
8E'\J	.	16cc#\	.
.	.	16b\JJ	.
=19	=19	=19	=19
*^	*	*	*
4.A/	8AA'\L	f	8cc#\L)	f
.	8BB'\	.	8dd'\	.
.	8C#'\J	.	8ee'\J	.
*v	*v	*	*	*
=20	=20	=20	=20
8D'\L	.	(16dd\LL	.
.	.	16cc#\	.
8D'\	.	16b\	.
.	.	16a\	.
8D#'\J	.	16g#\	.
.	.	16f#\JJ	.
=21	=21	=21	=21
4.E\	.	4.e/)	.
=22	=22	=22	=22
*k[]	*k[]	*k[]	*k[]
8E\L	p	4.r	p
8E\ 8e\	.	.	.
8E'\ 8e'\J	.	.	.
=23	=23	=23	=23
8F\ (8e\L	.	8r	.
.	.	ffq/LL	.
.	p	ggq/JJ	.
8F\ 8d\)	.	([4aa\	p
8F'\ 8c'\J	.	.	.
=24	=24	=24	=24
8G'\ 8c'\L	.	8aa\L]	<
8G'\ 8c'\	.	24gg\L	.
.	.	24ff\	.
.	.	24ee\J	.
8G'\ 8B'\J	.	24ff\L	.
.	.	24ee\	.
.	.	24dd\JJ	.
=25	=25	=25	=25
8C'\ 8c'\L	.	8ee'\)	p
8F'\ 8f'\	.	8r	.
8F'\ 8f'\J	.	8r	.
=26	=26	=26	=26
8G\ (8f\L	.	8r	.
.	.	(ggq/LL	.
.	.	aaq/JJ	.
8G\ 8e\)	.	([4bb-\)	p
8G'\ 8d'\J	.	.	.
=27	=27	=27	=27
8A'\ 8d'\L	.	8bb-\L]	<
8A'\ 8d'\	.	24aa\L	.
.	.	24gg\	.
.	.	24ff\J	.
8A'\ 8c#'\J	.	24gg\L	.
.	.	24ff\	.
.	.	24ee\JJ	.
=28	=28	=28	=28
8D'\ 8d'\L	.	8ff'\)	.
8G'\ 8g'\	.	8r	.
8G'\ 8g'\J	.	8r	.
=29	=29	=29	=29
8A\ (8g\L	.	8r	.
.	.	(aaq/LL	.
.	.	bbq/JJ)	.
8A\ 8f#\)	f	([4ccc\	f
8A'\ 8e'\J	.	.	.
=30	=30	=30	=30
8B'\ 8e'\L	.	8ccc\L]	.
8B'\ 8e'\	.	24bb\L	.
.	.	24aa\	.
.	.	24gg#\J	.
8B'\ 8d#'\J	.	24aa\L	.
.	.	24gg#\	.
.	.	24ff#\JJ	.
=31	=31	=31	=31
*^	*	*	*
4E/	(4.E\	.	16gg#\LL	.
.	.	.	16aa\	.
.	.	.	16bb\	.
.	.	.	16aa\	.
[8e/	.	.	16bb\	.
.	.	.	16ee\JJ	.
=32	=32	=32	=32	=32
8e/]	4.F\	.	16dd\LL	.
.	.	.	16ee\	.
4d/)	.	.	16ff\	.
.	.	.	16ee\	.
.	.	.	16ff\	.
.	.	.	16a\JJ	.
=33	=33	=33	=33	=33
(4EE/	4.EE\	.	(16g#/LL)	.
.	.	.	16a/	.
.	.	.	16b/	.
.	.	.	16a/	.
[8E/	.	.	16b/	.
.	.	.	16e/JJ	.
=34	=34	=34	=34	=34
8E/]	4.FF\)	.	16d/LL	.
.	.	.	16e/	.
4D/	.	.	16f/	.
.	.	.	16e/	.
.	.	.	16f/	.
.	.	.	16A/JJ	.
*v	*v	*	*	*
=35	=35	=35	=35
.	.	Aq/	.
4.EE/	>	8.G#/L	>
.	.	16F#/k	.
.	.	8E/J)	.
=36	=36	=36	=36
(16E\LL	.	8r	.
16F#\	<	.	.
16G#\	.	8ee'\L	p
16A\	.	.	.
16B\	.	8cc'\J	.
16c\JJ	.	.	.
=37	=37	=37	=37
16d\LL	>	(8b\L	<
16e\	.	.	.
16fn\	.	8dd\)	.
16e\	.	.	.
16d\	.	8cc\J	.
16c\JJ	.	.	.
=38	=38	=38	=38
16B\LL	.	8b'\L	.
16A\	.	.	.
16G#\	.	(8.cc\	.
16F#\	.	.	.
16E\	.	.	.
16D\JJ	.	32b\LL	.
.	.	32cc\JJJ	.
=39	=39	=39	=39
16E\LL	<	8b\L	.
16F#\	.	.	.
16G#\	.	8ee\)	.
16A\	.	.	.
16B\	.	8cc'\J	.
16c\JJ	.	.	.
=40	=40	=40	=40
16d\LL	>	(8b\L	.
16e\	.	.	.
16f\	.	8dd\)	.
16e\	.	.	.
16d\	.	8cc'\J	.
16c\JJ	.	.	.
=41	=41	=41	=41
16B\LL	.	8b'\L	.
16A\	.	.	.
16G#\	<	8.cc\	<
16F#\	.	.	.
16E\	.	.	.
16D\JJ	.	32b\LL	.
.	.	32cc\JJJ	.
=42	=42	=42	=42
8E\ 8G#\ 8B\L)	mf	16b/LL	mf
.	.	16a/	p
8E\ 8G#\ 8B\	p	16g#/	<
.	.	16a/	.
8E'\ 8G#'\ 8B'\J	.	16b/	.
.	.	16cc/JJ	.
=43	=43	=43	=43
8D\ 8A\ 8B\L	.	16dd\LL	>
.	.	16ee\	.
8D\ 8A\ 8B\	.	16ff\	.
.	.	16ee\	.
8D\ 8A\ 8B\J	.	16dd\	.
.	.	16cc\JJ	.
=44	=44	=44	=44
8D\ 8A\ 8B\L	.	16b/LL	.
.	.	16a/	.
8D\ 8A\ 8B\	.	16g#/	.
.	.	16f#/	.
8D\ 8A\ 8B\J	.	16e/	.
.	.	16d#/JJ	.
=45	=45	=45	=45
8E\ 8G#\ 8B\L	.	16e/LL	.
.	.	16f#/	<
8E\ 8G#\ 8B\	.	16g#/	.
.	.	16a/	.
8E\ 8G#\ 8B\J	.	16b/	.
.	.	16cc/JJ	.
=46	=46	=46	=46
8D\ 8A\ 8B\L	.	16dd\LL	>
.	.	16ee\	.
8D\ 8A\ 8B\	.	16ffn\	.
.	.	16ee\	.
8D\ 8A\ 8B\J	.	16dd\	.
.	.	16cc\JJ	.
=47	=47	=47	=47
8D\ 8A\ 8B\L	.	16b/LL	.
.	.	16a/	.
8D\ 8A\ 8B\	.	16g#/	.
.	.	16f#/	.
8D\ 8A\ 8B\J	.	16e/	.
.	.	16d#/JJ	.
=48	=48	=48	=48
8E\ 8G#\ 8B\L	<	16e/LL	<
.	.	16f#/	.
8E\ 8G#\ 8B\	.	16g#/	.
.	.	16a/	.
8E\ 8G#\ 8B\J	.	16b/	.
.	.	16cc/JJ	.
=49	=49	=49	=49
8D\ 8F\ 8Gn\ 8B\L	.	16dd\LL	.
.	.	16ee\	.
8D\ 8F\ 8G\ 8B\	.	16ffn\	.
.	.	16gg\	.
8D\ 8F\ 8G\ 8B\J	.	16aa\	.
.	.	16bb\JJ	.
=50	=50	=50	=50
8C'\L	f	16ccc\LL	f
.	.	16bb\	.
8D'\	.	16aa\	.
.	.	16gg\	.
8E'\J	.	16ff\	.
.	.	16ee\JJ	.
=51	=51	=51	=51
(8F\L	.	16dd\LL	.
.	.	16cc\	.
8G\)	.	16b\	.
.	.	16a\	.
8GG'\J	.	16g\	.
.	.	16f\JJ	.
=52	=52	=52	=52
8C'\L	p	4e/	p
8C'\ 8c'\	.	.	.
8C'\ 8c'\J	.	8r	.
=53	=53	=53	=53
8D\ (8c\L	.	8r	.
8D\ 8B\)	>	(8.ff#\L	>
8D'\ 8A'\J	.	.	.
.	.	32ee\LL	.
.	.	32ff#\JJJ	.
=54	=54	=54	=54
(8G\L	<	4gg\)	<
8D\ 8d\)	.	.	.
8D'\ 8d'\J	.	8r	.
=55	=55	=55	=55
8E\ (8d\L	.	8r	.
8E\ 8c\)	.	(8.gg#\L	.
8E'\ 8B'\J	.	.	.
.	.	32ff#\LL	.
.	.	32gg#\JJJ	.
=56	=56	=56	=56
(8A\L	.	4aa\)	.
8E\ 8e\)	.	.	.
8E'\ 8e'\J	.	8r	.
=57	=57	=57	=57
8F#\ (8e\L	f	8r	.
8F#\ 8d#\)	.	(8.aa#\L	f
8F#'\ 8c#'\J	.	.	.
.	.	32gg#\LL	.
.	.	32aa#\JJJ	.
=58	=58	=58	=58
*^	*	*	*
4d/	8B\L	.	16bb\LL	.
.	.	.	16aan\	.
.	8B\	.	16ggn\	.
.	.	.	16ff#\	.
8r	8B\J	.	16ee\	.
.	.	.	16dd#\JJ	.
=59	=59	=59	=59	=59
4c/	8B\L	.	16ccn/LL	.
.	.	.	16b/	.
.	8B\	.	16a/	.
.	.	.	16g/	.
8r	8B\J	.	16f#/	.
.	.	.	16e/JJ	.
*v	*v	*	*	*
=60	=60	=60	=60
(16B\LL	.	8d#'/L)	.
16A\	.	.	.
16G\	.	8e'/	.
16F#\	.	.	.
16E\	.	8f#'/J	.
16D\JJ	.	.	.
=61	=61	=61	=61
16C/LL	.	4g/	.
16BB/	.	.	.
16AA/	.	.	.
16GG/	.	.	.
16FF#/	.	8a'/	.
16EE/JJ	.	.	.
=62	=62	=62	=62
.	.	(aq/	.
4.BBB/)	.	4.b\)	.
=63	=63	=63	=63
*k[f#c#g#]	*k[f#c#g#]	*k[f#c#g#]	*k[f#c#g#]
(8B\L	p	8r	.
.	.	(f#q/	.
8c#\	.	(8.f#/L)	p
8d#\J	.	.	.
.	.	32e/LL	.
.	.	32f#/JJJ	.
=64	=64	=64	=64
8e'\L)	.	24g#/LL	.
.	.	24f#/	.
.	.	24g#/J	.
8f#'\	.	24a/L	.
.	.	24g#/	.
.	.	24a/J	.
8g#'\J	.	8b'/J)	.
=65	=65	=65	=65
(8B\L	<	8r	.
.	.	(f#q/	.
8c#\	.	(8.f#/L)	<
8d#\J	.	.	.
.	.	32e/LL	.
.	.	32f#/JJJ	.
*clefG2	*clefG2	*	*
=66	=66	=66	=66
8e'/L)	.	24g#/LL	.
.	.	24f#/	.
.	.	24g#/J	.
8f#'/	.	24a/L	.
.	.	24g#/	.
.	.	24a/J	.
8g#'/J	.	24b/L	.
.	.	24a/	.
.	.	24b/JJ	.
=67	=67	=67	=67
8a'\L	.	24cc#\LL	.
.	.	24b\	.
.	.	24cc#\J	.
8b'\	.	24dd#\L	.
.	.	24cc#\	.
.	.	24dd#\J	.
8cc#'\J	.	24ee\L	.
.	.	24dd#\	.
.	.	24ee\JJ	.
=68	=68	=68	=68
(8dd#\L	f	24ff#\LL	f
.	.	24aa\	.
.	.	24gg#\	.
8b\)	.	24aa\	.
.	.	24gg#\	.
.	.	24ff#\	.
8ee'\J	.	24gg#\	.
.	.	24ff#\	.
.	.	24ee\JJ	.
=69	=69	=69	=69
8a'\L	.	24aa\LL	.
.	.	24gg#\	.
.	.	24ff#\J	.
8b'\	.	24gg#\L	.
.	.	24ff#\	.
.	.	24ee\J	.
*clefF4	*clefF4	*	*
8B'\J	.	24ff#\L	.
.	.	24ee\	.
.	.	24dd#\JJ)	.
=70	=70	=70	=70
.	.	ddq/	.
4.E\	.	4.ee\	.
=71	=71	=71	=71
(8B\L	p	8r	.
.	.	(f#q/	.
8c#\	.	8.f#/L)	p
8d#\J	.	.	.
.	.	32e/LL	.
.	.	32f#/JJJ	.
=72	=72	=72	=72
8e'\L)	.	24g#/LL	.
.	.	24f#/	.
.	.	24g#/J	.
8f#'\	.	24a/L	.
.	.	24g#/	.
.	.	24a/J	.
8g#'\J	.	8b/J	.
=73	=73	=73	=73
(8B\L	<	8r	.
.	.	(f#q/	<
8c#\	.	8.f#/L)	.
8d#\J	.	.	.
.	.	32e/LL	.
.	.	32f#/JJJ	.
*clefG2	*clefG2	*	*
=74	=74	=74	=74
8e'/L)	.	24g#/LL	.
.	.	24f#/	.
.	.	24g#/J	.
8f#'/	.	24a/L	.
.	.	24g#/	.
.	.	24a/J	.
8g#/J	.	24b/L	.
.	.	24a/	.
.	.	24b/JJ	.
=75	=75	=75	=75
8a'\L	.	24cc#\LL	.
.	.	24b\	.
.	.	24cc#\J	.
8b'\	.	24dd#\L	.
.	.	24cc#\	.
.	.	24dd#\J	.
8cc#'\J	.	24ee\L	.
.	.	24dd#\	.
.	.	24ee\JJ	.
=76	=76	=76	=76
8dd#'\L	f	24ff#\LL	f
.	.	24aa\	.
.	.	24gg#\J	.
8b'\	.	24aa\L	.
.	.	24gg#\	.
.	.	24ff#\J	.
8ee'\J	.	24gg#\L	.
.	.	24ff#\	.
.	.	24ee\JJ	.
=77	=77	=77	=77
(8a\L	.	24aa\LL	.
.	.	24gg#\	.
.	.	24ff#\	.
8b\)	.	24gg#\	.
.	.	24ff#\	.
.	.	24ee\	.
*clefF4	*clefF4	*	*
8B'\J	.	24ff#\	.
.	.	24ee\	.
.	.	24dd#\JJ	.
=78	=78	=78	=78
4E\	.	8ee\L	.
.	.	8bb\	.
8G#'\	.	8b'\J	.
=79	=79	=79	=79
4A\	.	(8cc#\L	.
.	.	8ee\)	.
8B'\	.	8f#'\J	.
=80	=80	=80	=80
4E\	.	(8g#/L	.
.	.	8b/)	.
8G#'\	.	8B'/J	.
=81	=81	=81	=81
(8A\L	.	(8cc#/L	.
8B\)	.	8e/)	.
8BB'\J	.	8d#'/J	.
=82	=82	=82	=82
4E\	.	8e'/	.
.	.	8bb'\L	p
8G#\	p	8b'\J	.
=83	=83	=83	=83
4A\	.	(8cc#'\L	.
.	.	8ee\)	.
8B'\	.	8f#'\J	.
=84	=84	=84	=84
4E\	.	(8g#/L	.
.	.	8b/)	.
8G#'\	.	8B'/J	.
=85	=85	=85	=85
(8A\L	.	(8cc#/L	.
8B\)	.	8e/)	.
8BB'\J	.	8d#'/J	.
=86	=86	=86	=86
4E\	.	4e/	.
8r	.	8r	.
=87:|!|:	=87:|!|:	=87:|!|:	=87:|!|:
*>B	*>B	*>B	*>B
*k[]	*k[]	*k[]	*k[]
8E\L	p	4.r	p
8E'\ 8e'\	.	.	.
8E'\ 8e'\J	.	.	.
=88	=88	=88	=88
8F\ (8e\L	.	8r	.
.	.	(fq/LL	.
.	.	gq/JJ	.
8F\ 8d\)	p	([4a/)	p
8F'\ 8c'\J	.	.	.
=89	=89	=89	=89
8G'\ 8c'\L	.	8a/L]	.
8G'\ 8c'\	.	24g/L	.
.	.	24f/	.
.	.	24e/J	.
8G'\ 8B'\J	<	24f/L	<
.	.	24e/	.
.	.	24d/JJ	.
=90	=90	=90	=90
(8c\L	p	8e'/)	p
8F\ 8f\)	.	8r	.
8F'\ 8f'\J	.	8r	.
=91	=91	=91	=91
8G\ (8f\L	.	8r	.
.	.	gq/LL	.
.	.	aq/JJ	.
8G\ 8e\)	p	([4b-/	p
8G'\ 8d'\J	.	.	.
=92	=92	=92	=92
8A'\ 8d'\L	<	8b-/L]	<
8A'\ 8d'\	.	24a/L	.
.	.	24g/	.
.	.	24f/J	.
8A'\ 8c#'\J	.	24g/L	.
.	.	24f/	.
.	.	24e/JJ	.
=93	=93	=93	=93
*	*	*^	*
4D\ 4d\	mf	8f'/)	8r	.
.	.	8aa'/L	8r	mf
8d\	.	8ff'/J	8dd\	.
=94	=94	=94	=94	=94
*^	*	*	*	*
4d/	(8B-\L	.	4dd/	(8b-\L	.
.	8G\)	.	.	8g\)	.
8r	8A'\J	.	8ee/	8cc#\J	.
*v	*v	*	*	*	*
=95	=95	=95	=95	=95
4D\ 4d\	.	(8ff/L	8dd\	.
.	.	8aa/)	8r	.
8d'\	.	8ff'/J	8dd'\	.
=96	=96	=96	=96	=96
*^	*	*	*	*
4d/	(8B-\L	.	4dd/	(8b-\L	.
.	8G\)	.	.	8g\)	.
8r	8A'\J	.	8ee/	8cc#'\J	.
*v	*v	*	*	*	*
*	*	*v	*v	*
=97	=97	=97	=97
(8D\L	.	4dd\ 4ff\	.
8a\)	.	.	.
8d'\ 8f'\J	f	([8dd\	f
=98	=98	=98	=98
*^	*	*	*
4d/	(8B-\L	.	4dd\]	.
.	8G\)	.	.	.
8c#/	8A\J	.	24ee\LL	.
.	.	.	24ff\	.
.	.	.	24gg\JJ	.
*v	*v	*	*	*
=99	=99	=99	=99
(8D\L	.	24ff\LL	.
.	.	24ee\	.
.	.	24dd\JJ)	.
8a\)	.	([4dd\	.
8d\ 8f\J	.	.	.
=100	=100	=100	=100
*^	*	*	*
4d/	(8B-\L	.	4dd\]	.
.	8G\)	.	.	.
8c#/	8A'\J	.	24ee\LL	.
.	.	.	24ff\	.
.	.	.	24gg\JJ	.
*v	*v	*	*	*
=101	=101	=101	=101
*	*	*^	*
(8D\L	.	8r	24ff\LL	.
.	.	.	24ee\	.
.	.	.	24dd\JJ	.
8d\)	.	[4ff/)	8ff\L	.
8cn'\J	.	.	8a-'\J	.
=102	=102	=102	=102	=102
4B\	mf	8ff/L]	4g^\	mf
.	.	(16ee/L	.	.
.	.	16dd/	.	.
8G'\	.	16cc/	8r	.
.	.	16b/JJ	.	.
=103	=103	=103	=103	=103
4.A-\ 4.c\	.	8cc/L	8r	.
.	.	8gg/)	8r	.
.	.	8ee-'/J	8cc'\	.
=104	=104	=104	=104	=104
*^	*	*	*	*
4c/	8A-\L	.	4cc/	(8a-\L	.
.	8F\	.	.	8f\)	.
8r	8G'\J	.	8dd/	8b\J	.
*v	*v	*	*	*	*
=105	=105	=105	=105	=105
4.C/	.	(8ee-/L	4cc\	.
.	.	8gg/)	.	.
.	.	8ee-'/J	8cc\	.
=106	=106	=106	=106	=106
*^	*	*	*	*
4c/	(8A-\L	.	(4cc/	8a-\L	.
.	8F\)	.	.	8f\)	.
8r	8G'\J	.	8dd'/	8b'\J	.
*v	*v	*	*	*	*
*	*	*v	*v	*
=107	=107	=107	=107
(8C\L	.	4cc\ 4ee-\	.
8g\)	.	.	.
8c'\ 8e-'\J	f	([8cc\	f
=108	=108	=108	=108
*^	*	*	*
4c/	(8A-\L	.	4cc\]	.
.	8F\)	.	.	.
8B'/	8G\J	.	24dd\LL	.
.	.	.	24ee-\	.
.	.	.	24ff\JJ	.
*v	*v	*	*	*
=109	=109	=109	=109
8C\ 8c\L	.	24ee-\LL	.
.	.	24dd\	.
.	.	24cc\JJ)	.
8g\	.	([4cc\	.
8c'\ 8e-'\J	.	.	.
=110	=110	=110	=110
*^	*	*	*
4c/	(8A-\L	.	4cc\]	.
.	8F\)	.	.	.
8B/	8G'\J	.	24dd\LL	.
.	.	.	24ee-\	.
.	.	.	24ff\JJ	.
=111	=111	=111	=111	=111
*	*	*	*^	*
4.c/	(8C\L	.	8ee-/L	4cc\	.
.	8D\)	.	8ff/)	.	.
.	8E-'\J	.	[8gg/J	(8b-\	.
*v	*v	*	*	*	*
=112	=112	=112	=112	=112
(8F\L	.	8gg/L]	4.a\)	.
8G\)	mf	16ff/L	.	mf
.	.	16ee-/	.	.
8An'\J	.	16dd/	.	.
.	.	16cc/JJ	.	.
=113	=113	=113	=113	=113
*^	*	*	*	*
4.B-/	(8BB-\L	.	(4dd/	16dd\LL	.
.	.	.	.	16cc\	.
.	8C\)	.	.	16b-\	.
.	.	.	.	16a\	.
.	8D'\J	.	[8ff/	16g\	.
.	.	.	.	16f\JJ	.
*v	*v	*	*	*	*
=114	=114	=114	=114	=114
(8En\L	.	8ff/L]	4.g\)	.
8F\)	.	16een/L	.	.
.	.	16dd/	.	.
8G'\J	.	16cc/	.	.
.	.	16b-/JJ	.	.
=115	=115	=115	=115	=115
*^	*	*	*	*
4.A/	(8AA\L	.	(4cc/	16cc\LL	.
.	.	.	.	16b-\	.
.	8BB-\)	.	.	16a\	.
.	.	.	.	16g\	.
.	8C'\J	.	[8ee/	16f\	.
.	.	.	.	16e\JJ	.
*v	*v	*	*	*	*
=116	=116	=116	=116	=116
(8D\L	.	8ee/L]	4.f\)	.
8E\)	.	16dd/L	.	.
.	.	16cc/	.	.
8F'\J	.	16b-/	.	.
.	.	16a/JJ	.	.
=117	=117	=117	=117	=117
*^	*	*	*	*
4.G/	(8GG\L	.	4b-/	(16b-\LL	.
.	.	.	.	16a\	.
.	8AA\)	.	.	16g\	.
.	.	.	.	16f\	.
.	8BB-'\J	.	[8dd/	16e\	.
.	.	.	.	16d\JJ	.
*v	*v	*	*	*	*
=118	=118	=118	=118	=118
(8C\L	.	8dd/L]	4.e\)	.
8D\)	.	16cc/L	.	.
.	.	16b-/	.	.
8E'\J	.	16a/	.	.
.	.	16g/JJ	.	.
*	*	*v	*v	*
=119	=119	=119	=119
*^	*	*	*
4.F/	(8FF\L	.	16a/LL	.
.	.	.	16g/	.
.	8GG\)	.	16f/	.
.	.	.	16e/	.
.	8AA'\J	.	16d/	.
.	.	.	16c/JJ	.
*v	*v	*	*clefF4	*clefF4
=120	=120	=120	=120
(4.BB-/	.	16B-\LL	.
.	.	16A\	.
.	.	16G\	.
.	.	16F\	.
.	.	16E\	.
.	.	16D\JJ	.
=121	=121	=121	=121
4.CC/)	.	4.C/	.
=122	=122	=122	=122
8C'\L	.	4.r	.
8C'\ 8c'\	.	.	.
8C'\ 8c'\J	.	.	.
*	*	*clefG2	*clefG2
=123	=123	=123	=123
8D\ (8c\L	p	8r	.
8D\ 8B-\)	.	(8.f#/L	p
8D'\ 8A'\J	.	.	.
.	.	32e/LL	.
.	.	32f#/JJJ	.
=124	=124	=124	=124
(8G\L	<	4g/)	<
8D\ 8d\)	.	.	.
8D'\ 8d'\J	.	8r	.
=125	=125	=125	=125
8E\ (8d\L	.	8r	.
8E\ 8c\)	.	(8.g#/L	.
8E'\ 8Bn'\J	.	.	.
.	.	32f#/LL	.
.	.	32g#/JJJ	.
=126	=126	=126	=126
(8A\L	.	4a/)	.
8F\ 8f\)	.	.	.
8F'\ 8f'\J	.	8r	.
=127	=127	=127	=127
8G\ (8f\L	.	8r	.
8G\ 8e\)	.	(8.b\L	.
8G'\ 8d'\J	.	.	.
.	.	32a\LL	.
.	.	32b\JJJ	.
=128	=128	=128	=128
(8c\L	.	4cc\)	.
8G\ 8g\)	.	.	.
8G'\ 8g'\J	.	8r	.
=129	=129	=129	=129
8A\ (8g\L	.	8r	.
8A\ 8f\)	.	(8.cc#\L	.
8A'\ 8e'\J	.	.	.
.	.	32b\LL	.
.	.	32cc#\JJJ	.
=130	=130	=130	=130
(8d\L	.	4dd\)	.
8A\ 8a\)	.	.	.
8A'\ 8a'\J	.	8r	.
=131	=131	=131	=131
8B\ (8a\L	f	8r	.
8B\ 8g#\)	.	(8.dd#\L	f
8B'\ 8f#'\J	.	.	.
.	.	32cc#\LL	.
.	.	32dd#\JJJ	.
=132	=132	=132	=132
8e\L	.	16ee\LL	.
.	.	16ddn\	.
8e\	.	16ccn\	.
.	.	16b\	.
8e\J	.	16a\	.
.	.	16g#\JJ)	.
=133	=133	=133	=133
*^	*	*	*
4f/	8e\L	.	(16ff\LL	.
.	.	.	16ee\	.
.	8e\	.	16dd\	.
.	.	.	16cc\	.
8r	8e^\J	.	16b\	.
.	.	.	16a\JJ	.
*v	*v	*	*	*
=134	=134	=134	=134
(16e\LL	.	8g#'/L)	.
16d\	.	.	.
16c\	.	8a'/	.
16B\	.	.	.
16A\	.	8b'/J	.
16G#\JJ	.	.	.
=135	=135	=135	=135
16A\LL	.	4cc\	.
16Gn\	.	.	.
16F\	.	.	.
16E\	.	.	.
16D\	.	8dd'\	.
16C\JJ	.	.	.
=136	=136	=136	=136
.	.	ddq/	.
4.EE/)	.	4.ee\	.
=137	=137	=137	=137
*k[f#c#g#]	*k[f#c#g#]	*k[f#c#g#]	*k[f#c#g#]
(8E\L	p	8r	.
.	.	(Bq/	.
8F#\	.	(8.B/L)	p
8G#\J	.	.	.
.	.	32A/LL	.
.	.	32B/JJJ	.
=138	=138	=138	=138
8A'\L)	.	24c#/LL	.
.	.	24B/	.
.	.	24c#/J	.
8B'\	.	24d/L	.
.	.	24c#/	.
.	.	24d/J	.
8c#'\J	<	8e'/J)	<
=139	=139	=139	=139
(8E\L	.	8r	.
.	.	(Bq/	.
8F#\	.	8.B/L)	.
8G#\J	.	.	.
.	.	32A/LL	.
.	.	32B/JJJ	.
=140	=140	=140	=140
8A\L)	.	24c#/LL	.
.	.	24B/	.
.	.	24c#/J	.
8B'\	.	24d/L	.
.	.	24c#/	.
.	.	24d/J	.
8c#'\J	.	24e/L	.
.	.	24d/	.
.	.	24e/JJ	.
=141	=141	=141	=141
8d'\L	.	24f#/LL	.
.	.	24e/	.
.	.	24f#/J	.
8e'\	.	24g#/L	.
.	.	24f#/	.
.	.	24g#/J	.
8f#'\J	.	24a/L	.
.	.	24g#/	.
.	.	24a/JJ	.
*clefG2	*clefG2	*	*
=142	=142	=142	=142
8g#'/L	.	24b\LL	.
.	.	24a\	.
.	.	24b\J	.
8a'/	.	24cc#\L	.
.	.	24b\	.
.	.	24cc#\J	.
8b'/J	.	24dd\L	.
.	.	24cc#\	.
.	.	24dd\JJ	.
=143	=143	=143	=143
8cc#'\L	.	24ee\LL	.
.	.	24dd\	.
.	.	24ee\J	.
8dd'\	.	24ff#\L	.
.	.	24ee\	.
.	.	24ff#\J	.
8ee'\J	.	24gg#\L	.
.	.	24ff#\	.
.	.	24gg#\JJ	.
=144	=144	=144	=144
8ff#'\L	f	8aa'\L	f
8dd'\	.	8ff#'\	.
8b'\J	.	8dd'\J	.
=145	=145	=145	=145
(8g#/L	>	(8b/L	>
8a/)	.	8cc#/)	.
8f#'/J	.	8a'/J	.
*clefF4	*clefF4	*	*
=146	=146	=146	=146
8d'\L	.	8f#'/L	.
8B'\	.	8d'/	.
8G#'\J	.	8B'/J	.
=147	=147	=147	=147
(8A\L	p	(24c#/LL	p
.	<	24B/	<
.	.	24c#/J	.
8B\	.	24d/L	.
.	.	24c#/	.
.	.	24d/J	.
8c#'\J)	.	8e'/J)	.
=148	=148	=148	=148
8D'/L	mf	8B'/ 8d'/L	mf
8E'/	.	8A'/ 8c#'/	.
8EE'/J	.	8G#'/ 8B'/J	.
=149	=149	=149	=149
.	.	(Bq/	.
4.AA/	.	4.A/)	.
=150	=150	=150	=150
(8E\L	p	8r	.
.	.	Bq/	.
8F#\	.	(8.B/L	p
8G#\J	.	.	.
.	.	32A/LL	.
.	.	32B/JJJ	.
=151	=151	=151	=151
8A\L)	.	24c#/LL	.
.	.	24B/	.
.	.	24c#/J	.
8B'\	.	24d/L	.
.	.	24c#/	.
.	.	24d/J	.
8c#'\J	.	8e'/J)	.
=152	=152	=152	=152
(8E\L	<	8r	<
.	.	(Bq/	.
8F#\	.	8.B/L)	.
8G#\J	.	.	.
.	.	32A/LL	.
.	.	32B/JJJ	.
=153	=153	=153	=153
8A\L)	.	24c#/LL	.
.	.	24B/	.
.	.	24c#/J	.
8B'\	.	24d/L	.
.	.	24c#/	.
.	.	24d/J	.
8c#'\J	.	24e/L	.
.	.	24d/	.
.	.	24e/JJ	.
=154	=154	=154	=154
8d'\L	.	24f#/LL	.
.	.	24e/	.
.	.	24f#/J	.
8e'\	.	24g#/L	.
.	.	24f#/	.
.	.	24g#/J	.
8f#'\J	.	24a/L	.
.	.	24g#/	.
.	.	24a/JJ	.
*clefG2	*clefG2	*	*
=155	=155	=155	=155
8g#'/L	.	24b\LL	.
.	.	24a\	.
.	.	24b\J	.
8a'/	.	24cc#\L	.
.	.	24b\	.
.	.	24cc#\J	.
8b'/J	.	24dd\L	.
.	.	24cc#\	.
.	.	24dd\JJ	.
=156	=156	=156	=156
8cc#'\L	.	24ee\LL	.
.	.	24dd\	.
.	.	24ee\J	.
8dd'\	.	24ff#\L	.
.	.	24ee\	.
.	.	24ff#\J	.
8ee'\J	.	24gg#\L	.
.	.	24ff#\	.
.	.	24gg#\JJ	.
=157	=157	=157	=157
8ff#'\L	f	8aa'\L	f
8dd'\	.	8ff#'\	.
8b'\J	.	8dd'\J	.
=158	=158	=158	=158
(8g#/L	>	(8b\L	>
8a/)	.	8cc#\)	.
8f#'/J	.	8a'\J	.
*clefF4	*clefF4	*	*
=159	=159	=159	=159
8d'\L	.	8f#'/L	.
8B'\	.	8d'/	.
8G#'\J	.	8B'/J	.
=160	=160	=160	=160
(8A\L	p	(24c#/LL	p
.	.	24B/	.
.	.	24c#/J	.
8B\	.	24d/L	.
.	.	24c#/	.
.	.	24d/J	.
8c#'\J)	.	8e'/J)	.
=161	=161	=161	=161
8D'/L	mf	8B'/ 8d'/L	mf
8E'/	.	8A'/ 8c#'/	.
8EE'/J	.	8G#'/ 8B'/J	.
=162	=162	=162	=162
(8AA/L	f	(8e/L	f
8BB/)	.	8ee/)	.
8C#'/J	.	8e'/J	.
=163	=163	=163	=163
(8D/L	.	4f#/ 4dd/	.
8E/)	.	.	.
8EE'/J	.	8g#'/ 8b'/	.
=164	=164	=164	=164
(8AA/L	.	(8a/ 8cc#/L	.
8BB/)	.	8aa/)	.
8C#'/J	.	8e'/J	.
=165	=165	=165	=165
(8D/L	.	4f#/ 4dd/	.
8E/)	.	.	.
8EE'/J	.	8g#'/ 8b'/	.
=166	=166	=166	=166
(8AA/L	.	8a'/ 8cc#'/	.
8BB/)	.	8ccc#'\L	.
8C#'/J	.	8e'/J	.
=167	=167	=167	=167
(8D/L	.	4f#/ 4dd/	.
8E/)	.	.	.
8EE'/J	.	8g#'/ 8b'/	.
=168	=168	=168	=168
(8A\L	.	(24cc#\LL	.
.	.	24b\	.
.	.	24cc#\J	.
8B\	.	24dd\L	.
.	.	24cc#\	.
.	.	24dd\J	.
8c#'\J)	.	8ee\J)	.
=169	=169	=169	=169
8d'\L	.	8b'\ 8dd'\L	.
8e'\	.	8a'\ 8cc#'\	.
8E'\J	.	8g#'\ 8b'\J	.
=170	=170	=170	=170
(8AA/L	.	(24c#/LL	.
.	.	24B/	.
.	.	24c#/J	.
8BB/	.	24d/L	.
.	.	24c#/	.
.	.	24d/J	.
8C#'/J)	.	8e'/J)	.
=171	=171	=171	=171
.	.	(eq/	.
8D'/L	.	8B'/ 8d'/L)	.
8E'/	.	8A'/ 8c#'/	.
8EE'/J	.	8G#'/ 8B'/J	.
=172	=172	=172	=172
4AA/	.	4A/	.
8r	.	8r	.
==:|!	==:|!	==:|!	==:|!
*-	*-	*-	*-
!!!ENC: Craig Stuart Sapp
!!!END: 2004/11/03/
